T: This Is My Love, Do You Like Her?
M: 6/8
L: 1/8
K: Ador
|: c2 B |A2 c AGE | c2 B c2 d | e2 g edB | g2 g gfg |
eae g2 e | dBA G2 A | B2 e dBG |[1 A2 B :|[2 ABA  ||
|: AB/c/d |e2 a age | d2 g gfg | e2 b age | g2 g gfg |
eae g2 e | dBA G/A/GA |[1 BeB dBG | ABA :|[2 B^AB dBG | A3 |]
